X:1
T:Title
%%score { ( 1 3 ) | ( 2 4 ) }
L:1/8
M:4/4
K:F
V:1 treble nm="Grand Piano"
V:3 treble 
V:2 bass 
V:4 bass 
V:1
 z4 z2[Q:1/4=114] C2 | F3 C F2 A2 | z4 z2 .d2 | [Af]2 [FAc]2 [DFB]2 [CFA]2 | [B,DG]6 D2 | %5
 G3 D G2 B2 | e4 d2 ed | [Ec]2 [EB]2 [EG]2 [E_A]2 | [FA]6 [FA]2 | [^CA]3 [CE] [DF]2 [EG]2 | %10
 [DF]4 [FA]2 [Fc]2 | [Gc]3 [EG] [FA]2 [GB]2 | A6 A2 | G3 G [FG]2 [FG]2 | [Ec]2 d2 e2 [Ad]2 | %15
 z4 =B4 | [Ec]6 z2 | c6[K:bass][K:treble] z2 | c2 B2 z2 A2 | [B,EA]2 [B,EG]2 [A,DF]2 [CEG]2 | %20
 [CFA]6 z2 | [A,A]6 z2 | [A,DF]2 [DFA]2 z2 [Fd]2 | c2 =B2 c2 d2 | [Ge]6 z2 | f6 d2 | c2 A2 z2 A2 | %27
 [^CA]2 [CG]2 [DF]2 [DG]2 | [^CA]6 =C2 | DE F2 A2 [Gc]2 |[M:9/8] [Ff]3- [Ff] [F=B]2- [FB] [FB]2 | %31
[M:4/4] [Fc]2 [Fd]2 [EGe]3 [Ff] |[M:3/4] [Ff]6 |] %33
V:2
 z4 z2 C,2 | F,3 C, F,2 A,2 | [F,=B,]4 [F,C]2 [F,C]2 | [F,C]2 F,2 F,2 F,2 | B,,6 D,2 | %5
 G,3 D, G,2 B,2 | [G,B,G]4 [G,B,G]2 [G,B,G]2 | [C,G,]2 [C,C]2 [C,C]2 [C,C]2 | [F,C]6 [F,C]2 | %9
 [A,,A,]3 [A,,A,] [A,,A,]2 [A,,A,]2 | [D,A,]4 [D,D]2 [D,D]2 | [E,C]3 [C,C] [C,C]2 [C,C]2 | %12
 [F,CF]6 [F,CF]2 | [E,C]3 [E,C] [D,=B,]2 [D,B,]2 | [C,C]2[K:treble] [G,=B,G]2 [CG]2 [F,F]2 | %15
 G6 z2 | [C,C]6 z2 | [A,F]6 z2 | [G,B,D]2 [G,B,D]2 z2 [G,B,D]2 | C,2 C,2 D,2 C,2 | F,6 z2 | %21
 A,,2 =B,,2 ^C,2 A,,2 | D,2 D,2 z2 [D,A,]2 | [G,F]2 [G,F]2 [G,A,F]2 [G,=B,F]2 | [C,C]4 z4 | %25
 [A,CF]6 [B,F]2 | [A,CF]2 [F,CF]2 z2[K:bass] [F,CF]2 | [A,,A,]2 [A,,A,]2 [D,A,]2 [B,,D,]2 | %28
 [A,,E,]6 C,2 | D,E, F,2 [F,CF]2 [E,C]2 |[M:9/8] [D,D]3- [D,D] [^C,_A,]2- [C,A,] [C,A,]2 | %31
[M:4/4] [C,A,]2 [C,A,]2 [C,B,]3 [F,A,] |[M:3/4] [F,A,]6 |] %33
V:3
 x8 | x8 | [_Ad]4 [=Ac]2 A-[Ae] | x8 | x8 | x8 | x8 | x8 | x8 | x8 | x8 | x8 | x8 | x8 | x8 | %15
 c4 z2 F2 | x8 | z2[K:bass] C,2 F,2[K:treble] d2 | x8 | x8 | x8 | ^C2 D2 E2 [A,CE]2 | x8 | x8 | %24
 z4 C2 B,2 | x8 | x8 | x8 | x8 | x8 |[M:9/8] x9 |[M:4/4] x8 |[M:3/4] x6 |] %33
V:4
 x8 | x8 | x8 | x8 | x8 | x8 | x8 | x8 | x8 | x8 | x8 | x8 | x8 | x8 | x2[K:treble] x6 | %15
 [G,E]4 [G,D]4 | x8 | F,2 z2 z2 [^F,A,D]2 | x8 | x8 | x8 | x8 | x8 | x8 | x8 | x8 | x6[K:bass] x2 | %27
 x8 | x8 | x8 |[M:9/8] x9 |[M:4/4] x8 |[M:3/4] x6 |] %33

